X:1
T:Ack Herre Jesu
T:Knut Håkanson (1887-1929)
T:Ack Herre Jesu
T:Op 32 nr 3
%%score { ( 1 2 ) | ( 3 4 ) }
L:1/8
Q:1/4=120
M:4/2
K:C
V:1 treble nm="Vocals"
V:2 treble 
V:3 bass 
V:4 bass 
V:1
 (d2 B2) |"^Instrument change" A4 G4 A4 (3(G2 A2 B2) | %2
w: Ack *|Her- re Je- su * *|
"^Instrument change" c4 (3(B2 d2 B2) !fermata!A4 (d2{ed} B2)"^Instrument change" | %3
w: hör min * * röst: Gör *|
"^Instrument change" A4"^Instrument change" G4 (A2 F2) (E2 F2) | %4
w: dig ett tem- * pel *|
"^Instrument change" G4 (D2 F2) !fermata!E4 (D2 G2) | %5
w: i mitt * bröst. Ut- *|
"^Instrument change" (G ^F3)"^Instrument change" G4 (A2 Bc) B4 | %6
w: i * mitt hjär- * * ta|
"^Instrument change" (c2"^Instrument change" A2) (dB A2) (G !fermata!c3) (d2{ed} B2) | %7
w: bliv * och * * bo, * Så *|
"^Instrument change" A4 G4 (A2 F2) (E2 G2)"^Instrument change" | %8
w: har jag tröst * och *|
"^Instrument change" c4 (3(B2 d2 B2) c4 z4 |] %9
w: e- vig * * ro.|
V:2
 (D2 E2) | (F2 D2) E4 E4 E4 | E4 (3:2:2(E4 D2) !fermata!C4 !courtesy!=F4 | %3
 (F2 EF) G4 (E2 D2) (^C2 D2) | (D2"^Instrument change" !courtesy!=C2) (B,A, B,2) !fermata!C4 D4 | %5
 C4 (D2 B,2) (E2 D2) (G2 ^F2) | E4 (D2 C2) !fermata!C4 (!courtesy!=F2 D2) | %7
 C4 C4 (C2 B,2) (C2 D2) | (C2"^Instrument change" D2) (3(E2 !courtesy!=F2 G2) E4 z4 |] %9
V:3
 B,4 | (C2 B,2) C4 C4 (3(B,2 A,2 G,2) | G,4 (3(^G,2 ^F,2 G,2) !fermata!A,4 (A,2 B,2) | %3
 C4 (C2 _B,2) A,4 (G,2 A,2) | G,4 G,4 !fermata!G,4 B,4 | A,4 G,4 (G,2 ^F,2) G,4 | %6
 A,4 ^F,4 !fermata!G,4 (A,2 =F,2) | E,4 (3(E,2 F,2 G,2) F,4 G,4 | (E,2 ^F,2) G,4 G,4 z4 |] %9
V:4
 G,4 | F,4 (C,2 B,,2) (A,,2 C,2) E,4 | (C,2 D,2) E,4 !fermata!A,,4 D,4 | %3
 F,4 (E,2 D,2) (^C,2 D,2) (E,2 D,=C,) | (B,,2 A,,2) G,,4 !fermata!C,4 G,,4 | %5
 A,,4 (B,,2 G,,2) (C,2 D,2) E,4 | (A,,2 C,2) D,4 !fermata!E,4 D,4 | %7
 (A,,2 B,,2) (3(C,2 D,2 E,2) (F,2 D,2) (C,2 B,,2) | A,,4 G,,4 C,4 z4 |] %9

